X: 81
T: Miss Williamson's Jigg
R: jig
Q: "Slowish"
B: William Shepherd "1st Collection" 1793 p.8 #1
F: http://imslp.org/wiki/File:PMLP73094-Shepherd_Collections_HMT.pdf
C: William Shepherd (17??-1812)
Z: 2012 John Chambers <jc:trillian.mit.edu>
M: 6/8
L: 1/8
K: Bb
D |\
B,BB BAG | Ccc cTde | fbe dcB | AcB AGF |\
B,BB BAG | Ccc cTde | fdB ceA | BBB B2 :|
|: f |\
fdB TBAB | CcB AGF | GAB cfe | dBd cAF |\
fdB TBAB | CcB AGF | Egg DEF | CcA {c}B2 :|
